X: 2100
T: NIEL GOW'S RECOVERY
C: NEIL GOW
Q: "Strathspey."
R: Strathspey.
%R: strathspey
B: James Kerr "Merry Melodies" v.2 p.13 #0100
Z: 2016 John Chambers <jc:trillian.mit.edu>
M: C
L: 1/16
K: C
uF2 |\
(EFG2) uG3ue (ed)cB c4 | (ABc2) uG3uE vFD3D3uF |\
(EFG2) uG3ue (ed)cB c4 | (ABc2) uG3uF EC3C2 :|\
ug2 |:\
veg3c3ug vec3c3u_b |
va3vfug3ue vfd3d3ug |\
[1 veg3c3ug vec3c3u_b | va3vfug3uf (ec3)uc3ug :|\
[2 eg3de3 cf3e3ud | vcA3G3uF EC3 C2 |]
